X:3
T:Jimmy Ward's Jig
R:Jig
Z:Transcribed 27 November, 2017 by Stephen Beitzel
C:Trad. arr Adam Blaine
M:6/8
L:1/8
K:D
[| {Gdc}d3 {g}def | {g}edB {g}dBA | {g}d{e}d{G}d {g}edB | {g}dBA {g}ABc | 
{Gdc}d3 {g}def | {g}edB {g}def | {gf}g2 e {g}fdB | {g}A{d}A{e}A {g}ABc | 
{Gdc}(d3 d)ef | {g}edB {g}dBA | {g}d{e}d{G}d {g}edB | {g}dBA {g}ABc | 
{Gdc}d3 {g}def | {g}edB {g}def | {gf}g2 e {g}fdB | {g}A{d}A{e}A {g}ABc ||
[|:{gf}g2 e {g}fed | {g}efe {g}edB | {gf}g2 e {g}fdB | {g}A{d}A{e}A {g}ABc |
{gf}g2 e {g}fed | {g}efe {g}efg | age {g}edB | {g}dBA ["1" {GAG}A2 f :|] ["2" {GAG}A3 |]


